X:145
T: ES KAMEN GRUENE VOEGELEIN
N: F0273
O: Europa, Mitteleuropa, Deutschland
R: Jugend - Lied, Jahreszeiten, Sommer, Herbst
M: 2/4
L: 1/16
K: D
A,2 | F,3E,F,2G,2 | A,3B,A,2
A,2 | B,3CD2E2 | D4A,2
A,2 | F,3E,F,2G,2 | A,3B,A,2
A,2 | B,3CD2E2 | D4A,2
F2 | E3DC2B,2 | C4A,2
D2 | C3B,A,2^G,2 | A,4E,2
G,2 | F,2G,2F,2G,2 | A,2B,2C2
D2 | E4C4 | D4z2

@@@ Tune index: 5576
